X: 39546
T: Tea Gardens
R: jig
M: 6/8
K: Gmajor
|:Bc^c|d^cd b2 a|g2 d B2 d|cBc e2 c|E3- E2 G|
FDF A2 d|f2 d A2 _B|1 B^AB edc|d3:|2 B^AB bfa|g3- g:|
|:d/c/|[B,B]DG BGD|[B,B]DG Bdg|e^de B2 =d|c3- c2 B|
ABc AA/B/c|a2 g f2 e|1 d^cd ed=c|B3- B:|2 c’bc’ e2 f|g3||

